images/site-logo-footer.svg

<svg width="170" height="33" viewBox="0 0 170 33" fill="none" xmlns="http://www.w3.org/2000/svg">
<path fill-rule="evenodd" clip-rule="evenodd" d="M121.588 6.28571C122.839 6.28571 123.806 5.98965 124.489 5.39752C125.171 4.80538 125.512 4.05383 125.512 3.14286C125.512 2.20911 125.182 1.45186 124.523 0.871118C123.863 0.290373 122.885 0 121.588 0C120.291 0 119.313 0.290373 118.653 0.871118C117.994 1.45186 117.664 2.20911 117.664 3.14286C117.664 4.05383 118.005 4.80538 118.688 5.39752C119.37 5.98965 120.337 6.28571 121.588 6.28571ZM13.6495 24.2376C12.1708 25.2283 10.3054 25.7236 8.05322 25.7236C3.32139 25.7236 0.636978 23.7992 0 19.9503L5.11857 18.7888C5.43706 20.2464 6.41528 20.9752 8.05322 20.9752C9.16793 20.9752 9.72529 20.6791 9.72529 20.087C9.72529 19.882 9.65135 19.7169 9.50348 19.5916C9.35561 19.4664 9.03144 19.3126 8.53096 19.1304L6.48353 18.3789L5.90342 18.1739C5.49394 18.0373 5.16976 17.9177 4.93089 17.8152C4.69203 17.7127 4.3451 17.5476 3.89012 17.3199C3.43513 17.0921 3.05977 16.8473 2.76403 16.5854C2.46829 16.3235 2.16118 16.016 1.84269 15.663C1.5242 15.31 1.28533 14.9001 1.12609 14.4332C0.966842 13.9664 0.887219 13.4596 0.887219 12.913C0.887219 11.1594 1.58107 9.73602 2.96877 8.64286C4.35647 7.54969 6.09679 7.00311 8.18972 7.00311C11.6931 7.00311 14.059 8.52899 15.2875 11.5807L10.203 13.0155C9.74804 12.059 9.05419 11.5807 8.12147 11.5807C7.37075 11.5807 6.99538 11.8654 6.99538 12.4348C6.99538 12.6398 7.08638 12.8106 7.26837 12.9472C7.45037 13.0839 7.75748 13.2205 8.18972 13.3571L10.1689 14.177C13.8543 15.4524 15.7538 17.3654 15.8676 19.9161C15.8676 21.8064 15.1282 23.2469 13.6495 24.2376ZM29.0345 23.1273C27.9653 24.8582 26.3046 25.7236 24.0524 25.7236C19.8893 25.7236 17.8078 23.1159 17.8078 17.9006V7.37888H24.8373V17.2174C24.8373 19.2443 25.5425 20.2578 26.9529 20.2578C28.3406 20.2578 29.0345 19.2443 29.0345 17.2174V7.37888H36.064V25.3478H29.0345V23.1273ZM46.1939 25.3478V15.5093C46.1939 13.4824 46.8878 12.4689 48.2755 12.4689C49.6859 12.4689 50.3911 13.4824 50.3911 15.5093V25.3478H57.4206V14.8261C57.4206 9.61077 55.3391 7.00311 51.176 7.00311C48.9238 7.00311 47.2631 7.86853 46.1939 9.59938V7.37888H39.1644V25.3478H46.1939ZM67.3458 15.5093V25.3478H60.3163V7.37888H67.3458V9.59938C68.415 7.86853 70.0757 7.00311 72.3279 7.00311C76.491 7.00311 78.5725 9.61077 78.5725 14.8261V25.3478H71.543V15.5093C71.543 13.4824 70.8378 12.4689 69.4274 12.4689C68.0396 12.4689 67.3458 13.4824 67.3458 15.5093ZM89.3167 33L100.714 7.37888H93.3774L89.8968 16.5683L86.7915 7.37888H79.1136L86.5868 23.6056L82.4237 33H89.3167ZM113.71 24.2376C112.232 25.2283 110.366 25.7236 108.114 25.7236C103.382 25.7236 100.698 23.7992 100.061 19.9503L105.179 18.7888C105.498 20.2464 106.476 20.9752 108.114 20.9752C109.229 20.9752 109.786 20.6791 109.786 20.087C109.786 19.882 109.712 19.7169 109.564 19.5916C109.416 19.4664 109.092 19.3126 108.592 19.1304L106.544 18.3789L105.964 18.1739C105.555 18.0373 105.231 17.9177 104.992 17.8152C104.753 17.7127 104.406 17.5476 103.951 17.3199C103.496 17.0921 103.121 16.8473 102.825 16.5854C102.529 16.3235 102.222 16.016 101.903 15.663C101.585 15.31 101.346 14.9001 101.187 14.4332C101.028 13.9664 100.948 13.4596 100.948 12.913C100.948 11.1594 101.642 9.73602 103.03 8.64286C104.417 7.54969 106.158 7.00311 108.251 7.00311C111.754 7.00311 114.12 8.52899 115.348 11.5807L110.264 13.0155C109.809 12.059 109.115 11.5807 108.182 11.5807C107.432 11.5807 107.056 11.8654 107.056 12.4348C107.056 12.6398 107.147 12.8106 107.329 12.9472C107.511 13.0839 107.818 13.2205 108.251 13.3571L110.23 14.177C113.915 15.4524 115.815 17.3654 115.928 19.9161C115.928 21.8064 115.189 23.2469 113.71 24.2376ZM125.103 7.37888V25.3478H118.073V7.37888H125.103ZM135.745 25.7236C138.133 25.7236 139.839 24.8582 140.863 23.1273V25.3478H147.893V0.649068H140.863V9.63354C139.839 7.87992 138.133 7.00311 135.745 7.00311C133.333 7.00311 131.326 7.88561 129.722 9.65062C128.118 11.4156 127.316 13.6532 127.316 16.3634C127.316 19.0735 128.118 21.3111 129.722 23.0761C131.326 24.8411 133.333 25.7236 135.745 25.7236ZM135.25 19.2329C135.853 19.9845 136.655 20.3602 137.656 20.3602C138.656 20.3602 139.458 19.9845 140.061 19.2329C140.664 18.4814 140.966 17.5248 140.966 16.3634C140.966 15.2019 140.664 14.2453 140.061 13.4938C139.458 12.7422 138.656 12.3665 137.656 12.3665C136.655 12.3665 135.847 12.7422 135.233 13.4938C134.641 14.2453 134.345 15.2019 134.345 16.3634C134.345 17.5248 134.647 18.4814 135.25 19.2329ZM160.616 25.7236C164.188 25.7236 166.974 24.6874 168.976 22.6149L166.076 18.7205C164.643 19.882 163.027 20.4627 161.23 20.4627C159.865 20.4627 158.756 20.1553 157.903 19.5404C157.05 18.9255 156.623 18.3333 156.623 17.764H169.829C169.943 17.354 170 16.8188 170 16.1584C170 13.3344 169.073 11.1025 167.219 9.46273C165.365 7.82298 162.993 7.00311 160.104 7.00311C157.01 7.00311 154.565 7.92547 152.767 9.77019C150.97 11.6149 150.072 13.8354 150.072 16.4317C150.072 19.0963 151.021 21.3111 152.921 23.0761C154.821 24.8411 157.386 25.7236 160.616 25.7236ZM157.715 12.5885C157.033 13.0326 156.669 13.676 156.623 14.5186H163.653C163.607 13.6988 163.243 13.0611 162.561 12.6056C161.879 12.1501 161.071 11.9224 160.138 11.9224C159.205 11.9224 158.398 12.1444 157.715 12.5885Z" fill="#2C7566"/>
</svg>

<svg width="170" height="33" fill="none" xmlns="http://www.w3.org/2000/svg"><path fill-rule="evenodd" clip-rule="evenodd" d="M121.588 6.286c1.251 0 2.218-.296 2.901-.888.682-.593 1.023-1.344 1.023-2.255 0-.934-.33-1.691-.989-2.272-.66-.58-1.638-.871-2.935-.871-1.297 0-2.275.29-2.935.871-.659.58-.989 1.338-.989 2.272 0 .91.341 1.662 1.024 2.255.682.592 1.649.888 2.9.888ZM13.65 24.238c-1.48.99-3.345 1.486-5.597 1.486-4.732 0-7.416-1.925-8.053-5.774l5.119-1.161c.318 1.457 1.296 2.186 2.934 2.186 1.115 0 1.672-.296 1.672-.888a.617.617 0 0 0-.222-.495c-.147-.126-.472-.28-.972-.462l-2.047-.751-.58-.205c-.41-.137-.734-.256-.973-.359a21.372 21.372 0 0 1-1.04-.495 5.214 5.214 0 0 1-1.127-.735c-.296-.262-.603-.569-.921-.922a3.5 3.5 0 0 1-.717-1.23 4.68 4.68 0 0 1-.239-1.52c0-1.754.694-3.177 2.082-4.27 1.387-1.093 3.128-1.64 5.22-1.64 3.504 0 5.87 1.526 7.098 4.578l-5.084 1.434c-.455-.956-1.149-1.434-2.082-1.434-.75 0-1.126.284-1.126.854 0 .205.091.376.273.512.182.137.49.274.922.41l1.979.82c3.685 1.275 5.585 3.188 5.699 5.74 0 1.89-.74 3.33-2.219 4.32Zm15.385-1.11c-1.07 1.73-2.73 2.596-4.983 2.596-4.163 0-6.244-2.608-6.244-7.823V7.379h7.03v9.838c0 2.027.704 3.04 2.115 3.04 1.388 0 2.082-1.013 2.082-3.04V7.38h7.029v17.969h-7.03v-2.22Zm17.159 2.22v-9.839c0-2.027.694-3.04 2.081-3.04 1.41 0 2.116 1.013 2.116 3.04v9.839h7.03V14.826c0-5.215-2.082-7.823-6.245-7.823-2.252 0-3.913.866-4.982 2.596V7.38h-7.03v17.969h7.03Zm21.152-9.839v9.839h-7.03V7.378h7.03V9.6c1.069-1.73 2.73-2.596 4.982-2.596 4.163 0 6.245 2.608 6.245 7.823v10.522h-7.03v-9.839c0-2.027-.705-3.04-2.116-3.04-1.387 0-2.081 1.013-2.081 3.04ZM89.316 33l11.398-25.621h-7.337l-3.48 9.19-3.106-9.19h-7.677l7.473 16.227L82.424 33h6.893Zm24.394-8.762c-1.478.99-3.344 1.486-5.596 1.486-4.732 0-7.416-1.925-8.053-5.774l5.118-1.161c.319 1.457 1.297 2.186 2.935 2.186 1.115 0 1.672-.296 1.672-.888a.617.617 0 0 0-.222-.495c-.148-.126-.472-.28-.972-.462l-2.048-.751-.58-.205a13.12 13.12 0 0 1-.972-.359 21.304 21.304 0 0 1-1.041-.495 5.22 5.22 0 0 1-1.126-.735c-.296-.262-.603-.569-.922-.922a3.503 3.503 0 0 1-.716-1.23 4.687 4.687 0 0 1-.239-1.52c0-1.754.694-3.177 2.082-4.27 1.387-1.093 3.128-1.64 5.221-1.64 3.503 0 5.869 1.526 7.097 4.578l-5.084 1.434c-.455-.956-1.149-1.434-2.082-1.434-.75 0-1.126.284-1.126.854 0 .205.091.376.273.512.182.137.489.274.922.41l1.979.82c3.685 1.275 5.585 3.188 5.698 5.74 0 1.89-.739 3.33-2.218 4.32Zm11.393-16.86v17.97h-7.03V7.378h7.03Zm10.642 18.346c2.388 0 4.094-.866 5.118-2.597v2.22h7.03V.65h-7.03v8.985c-1.024-1.754-2.73-2.63-5.118-2.63-2.412 0-4.419.882-6.023 2.647-1.604 1.765-2.406 4.002-2.406 6.712s.802 4.948 2.406 6.713c1.604 1.765 3.611 2.648 6.023 2.648Zm-.495-6.491c.603.752 1.405 1.127 2.406 1.127 1 0 1.802-.375 2.405-1.127.603-.752.905-1.708.905-2.87 0-1.161-.302-2.118-.905-2.87-.603-.75-1.405-1.127-2.405-1.127-1.001 0-1.809.376-2.423 1.128-.592.751-.888 1.708-.888 2.87 0 1.16.302 2.117.905 2.869Zm25.366 6.49c3.572 0 6.358-1.036 8.36-3.108l-2.9-3.894c-1.433 1.161-3.049 1.742-4.846 1.742-1.365 0-2.474-.308-3.327-.923-.853-.614-1.28-1.207-1.28-1.776h13.206c.114-.41.171-.945.171-1.606 0-2.824-.927-5.056-2.781-6.695-1.854-1.64-4.226-2.46-7.115-2.46-3.094 0-5.539.922-7.337 2.767-1.797 1.845-2.695 4.065-2.695 6.662 0 2.664.949 4.88 2.849 6.644 1.9 1.765 4.465 2.648 7.695 2.648Zm-2.901-13.134c-.682.444-1.046 1.087-1.092 1.93h7.03c-.046-.82-.41-1.458-1.092-1.913-.682-.456-1.49-.684-2.423-.684s-1.74.222-2.423.666Z" fill="#2C7566"/></svg>
